src/status/16/user-away-panel.svg

<svg viewBox="0 0 16 16" xmlns="http://www.w3.org/2000/svg">
 <path d="m7.5 2a6.5 6.5 0 0 0-6.5 6.5 6.5 6.5 0 0 0 6.5 6.5 6.5 6.5 0 0 0 4.6797-2h3.8203l-2.369-2.369a6.5 6.5 0 0 0 0.369-2.131 6.5 6.5 0 0 0-6.5-6.5zm1.5 4 3 3-3 3v-2h-5v-2h5v-2z" fill="#2e3440" fill-rule="evenodd"/>
</svg>

<svg xmlns="http://www.w3.org/2000/svg" viewBox="0 0 16 16">
 <path d="M 7.5 2 A 6.5 6.5 0 0 0 1 8.5 A 6.5 6.5 0 0 0 7.5 15 A 6.5 6.5 0 0 0 12.179688 13 L 16 13 L 13.631 10.631 A 6.5 6.5 0 0 0 14 8.5 A 6.5 6.5 0 0 0 7.5 2 z M 9 6 L 12 9 L 9 12 L 9 10 L 4 10 L 4 8 L 9 8 L 9 6 z" style="fill:#2e3440;fill-opacity:1;fill-rule:evenodd;stroke-width:1"/>
</svg>
